Suru++-Ubuntu/apps/symbolic/picard-symbolic.svg

<svg width="16" height="16" version="1.1" viewBox="0 0 16 16" xmlns="http://www.w3.org/2000/svg">
 <path d="m2.5 0.79296875s-0.6033993-0.006894-1.2226562 0.30273435c-0.61925701 0.3096285-1.2773438 1.030599-1.2773438 2.1972657v5.2070312l7.5 7.5 7.707031-7.7070312-7.4999998-7.5zm0 1h4.7929688l6.5000002 6.5-6.292969 6.2929692-6.5-6.5000005v-4.7929687c0-0.8333334 0.3419132-1.1123629 0.7226562-1.3027344 0.3807431-0.1903715 0.7773438-0.1972657 0.7773438-0.1972656zm1 1c-0.8225052 0-1.5 0.6774947-1.5 1.5 0 0.8225052 0.6774948 1.5 1.5 1.5s1.5-0.6774948 1.5-1.5c0-0.8225053-0.6774948-1.5-1.5-1.5zm0 1c0.2820548 0 0.5 0.2179452 0.5 0.5 0 0.2820547-0.2179452 0.5-0.5 0.5s-0.5-0.2179453-0.5-0.5c0-0.2820548 0.2179452-0.5000001 0.5-0.5z" fill="#808080"/>
</svg>

<svg xmlns="http://www.w3.org/2000/svg" width="16" height="16" version="1.1" viewBox="0 0 16 16">
 <path fill="#808080" d="m 2.5,0.79296875 c 0,0 -0.6033993,-0.006894 -1.2226562,0.30273435 C 0.65808679,1.4053316 0,2.1263021 0,3.2929688 V 8.5 L 7.5,16 15.207031,8.2929688 7.7070312,0.79296875 Z m 0,1.00000005 h 4.7929688 l 6.5000002,6.5 L 7.5,14.585938 1,8.0859375 V 3.2929688 C 1,2.4596354 1.3419132,2.1806059 1.7226562,1.9902344 2.1033993,1.7998629 2.5,1.7929687 2.5,1.7929688 Z m 1,1 c -0.8225052,0 -1.5,0.6774947 -1.5,1.5 0,0.8225052 0.6774948,1.5 1.5,1.5 0.8225052,0 1.5,-0.6774948 1.5,-1.5 0,-0.8225053 -0.6774948,-1.5 -1.5,-1.5 z m 0,1 c 0.2820548,0 0.5,0.2179452 0.5,0.5 0,0.2820547 -0.2179452,0.5 -0.5,0.5 -0.2820548,0 -0.5,-0.2179453 -0.5,-0.5 0,-0.2820548 0.2179452,-0.5000001 0.5,-0.5 z"/>
</svg>
